X: 1
T: Duke of York's March  v.2
P: piffero secondo b0014
O: Cushing 18-5 -- mod
F: http://ancients.sudburymuster.org/mus/med/pdf/yorkmedC0.pdf
Z: 2020 John Chambers <jc:trillian.mit.edu>
M: 4/4
L: 1/16
K: D
z2 |\
D4 D3D F4 F3F | A2F2A2F2 D4 A4 | d3Ad3A d2A2F2D2 | A4 A3A A4 z4 |\
(D2F2).A2.A2 (D2F2).A2.A2 | (E2G2).A2.A2 D2F2A2d2 | f6d2 (d2B2)(e2d2) |
A4 A3A A4 z2 :: z2 |\
A4 A3A (A2c2d2e2) | A4 A3A (A2F2A2d2) | (c2A2)A2A2 (d2d2)d2d2 | (g2f2e2d2) (d4 c4) |\
F16 |
G12 (ABcd) | .e2.e2.d2.d2 .c2.c2.B2.B2 | A4 A3A A4 z4 |\
D4 D3D F4 F3F | A2F2A2F2 D4 B4 | A8 (B2G2)(F2E2) | F4 F3F F4 z2 :|
